packages/astro-components-stencil/src/icons/account-box.svg

<svg width="24" height="24" viewBox="0 0 24 24" fill="none" xmlns="http://www.w3.org/2000/svg">
<path fill-rule="evenodd" clip-rule="evenodd" d="M3 5V19C3 20.1 3.89 21 5 21H19C20.1 21 21 20.1 21 19V5C21 3.9 20.1 3 19 3H5C3.89 3 3 3.9 3 5ZM15 9C15 10.66 13.66 12 12 12C10.34 12 9 10.66 9 9C9 7.34 10.34 6 12 6C13.66 6 15 7.34 15 9ZM12 13.9C10 13.9 6 15 6 17V18H18V17C18 15 14 13.9 12 13.9Z" fill="black"/>
</svg>

<svg xmlns="http://www.w3.org/2000/svg" viewBox="0 0 24 24"><g xmlns="http://www.w3.org/2000/svg" id="account-box" fill-rule="nonzero">
            <path d="M3 5v14a2 2 0 002 2h14c1.1 0 2-.9 2-2V5c0-1.1-.9-2-2-2H5a2 2 0 00-2 2zm12 4c0 1.66-1.34 3-3 3s-3-1.34-3-3 1.34-3 3-3 3 1.34 3 3zm-9 8c0-2 4-3.1 6-3.1s6 1.1 6 3.1v1H6v-1z"/>
        </g></svg>
